X: 102
T: Sabato sancto. Lectio tertia
C: Gaspar van Weerbeke
%%abc-version 2.0
%%abcx-abcm2ps-target-version 5.9.1 (29 Sep 2008)
%%abc-creator hum2abc beta
%%abcx-conversion-date 2022/03/06 13:05:58
%%abc-copyright Copyright 2018, Pavanello, Agnese
%%abc-edited-by Zybina, Karina
%%humdrum-veritas 2845713390
%%humdrum-veritas-data 2124676697
%%linebreak <none>
%%barnumbers 0
L: 1/4
M: 2/2
N: Derived from Gas0501f-Sabato_sancto_Lectio_tertia.krn
%%staves [1 2 3 4]
V: 1 clef=treble
V: 2 clef=treble-8
V: 3 clef=treble-8
V: 4 clef=bass
K: F
[V:1] D4- | 
[V:2] A4- | 
[V:3] D4 | 
[V:4] A,4 | 
[V:1] D4 | 
[V:2] A4 | 
[V:3] F4 | 
[V:4] D,2F,2 | 
[V:1] E4 | 
[V:2] =B3c | 
[V:3] G4 | 
[V:4] E,4 | 
[V:1] F4 | 
[V:2] d4 | 
[V:3] A4 | 
[V:4] D,4 | 
[V:1] G4- | 
[V:2] B4- | 
[V:3] G4- | 
[V:4] D4- | 
[V:1] G2G2 | 
[V:2] B2B2 | 
[V:3] G2G2 | 
[V:4] D2D2 | 
[V:1] G4- | 
[V:2] B4- | 
[V:3] G4- | 
[V:4] D4- | 
[V:1] G4 | 
[V:2] B4 | 
[V:3] G4 | 
[V:4] D4 | 
[V:1] z4 | 
[V:2] z4 | 
[V:3] z4 | 
[V:4] z4 | 
[V:1] G4 | 
[V:2] d4 | 
[V:3] G4 | 
[V:4] B,4 | 
[V:1] A4 | 
[V:2] f4 | 
[V:3] F4 | 
[V:4] C4 | 
[V:1] B4- | 
[V:2] d4- | 
[V:3] G4- | 
[V:4] B,3A, | 
[V:1] B2A2 | 
[V:2] d2f2 | 
[V:3] G2A2 | 
[V:4] G,2F,2 | 
[V:1] G4 | 
[V:2] _e2d2- | 
[V:3] B4 | 
[V:4] G,4 | 
[V:1] ^F4 | 
[V:2] d4 | 
[V:3] A4 | 
[V:4] D,4 | 
[V:1] G4- | 
[V:2] B4- | 
[V:3] G4- | 
[V:4] D4- | 
[V:1] G2G2 | 
[V:2] B2B2 | 
[V:3] G2G2 | 
[V:4] D2D2 | 
[V:1] G4- | 
[V:2] B4- | 
[V:3] G4- | 
[V:4] D4- | 
[V:1] G4 | 
[V:2] B4 | 
[V:3] G4 | 
[V:4] D4 | 
[V:1] z4 | 
[V:2] z4 | 
[V:3] z4 | 
[V:4] z4 | 
[V:1] G4 | 
[V:2] d4 | 
[V:3] G4 | 
[V:4] B,4 | 
[V:1] G4 | 
[V:2] d4 | 
[V:3] G4 | 
[V:4] G,4 | 
[V:1] F4- | 
[V:2] d4- | 
[V:3] A4- | 
[V:4] D,4- | 
[V:1] F4 | 
[V:2] d4 | 
[V:3] A4 | 
[V:4] D,4 | 
[V:1] G4 | 
[V:2] _e4 | 
[V:3] B4 | 
[V:4] G,4 | 
[V:1] A4- | 
[V:2] f4- | 
[V:3] c4- | 
[V:4] F,4- | 
[V:1] A4 | 
[V:2] f4 | 
[V:3] c4 | 
[V:4] F,4 | 
[V:1] G4 | 
[V:2] d4- | 
[V:3] B4 | 
[V:4] G,4 | 
[V:1] F4- | 
[V:2] d4- | 
[V:3] A4- | 
[V:4] D,4- | 
[V:1] F4 | 
[V:2] d4 | 
[V:3] A4 | 
[V:4] D,4 | 
[V:1] z4 | 
[V:2] z4 | 
[V:3] z4 | 
[V:4] z4 | 
[V:1] G4- | 
[V:2] d4 | 
[V:3] G4- | 
[V:4] G,3A, | 
[V:1] G2A2 | 
[V:2] e2f2 | 
[V:3] G2F2 | 
[V:4] B,2C2 | 
[V:1] B4 | 
[V:2] d3e | 
[V:3] G4 | 
[V:4] B,4 | 
[V:1] A4- | 
[V:2] f4 | 
[V:3] A4- | 
[V:4] F,4- | 
[V:1] A4 | 
[V:2] c2d2 | 
[V:3] A4 | 
[V:4] F,4 | 
[V:1] G4 | 
[V:2] _e4 | 
[V:3] B4 | 
[V:4] _E,4 | 
[V:1] F2A2 | 
[V:2] c3d | 
[V:3] A4 | 
[V:4] F,4 | 
[V:1] G2F2 | 
[V:2] _e2c2- | 
[V:3] B2A2 | 
[V:4] _E,2F,2 | 
[V:1] E4 | 
[V:2] c4 | 
[V:3] G4 | 
[V:4] C,4 | 
[V:1] F4- | 
[V:2] A4- | 
[V:3] F4- | 
[V:4] C4- | 
[V:1] F4 | 
[V:2] A4 | 
[V:3] F4 | 
[V:4] C4 | 
[V:1] z4 | 
[V:2] z4 | 
[V:3] z4 | 
[V:4] z4 | 
[V:1] D4- | 
[V:2] G4 | 
[V:3] G4- | 
[V:4] B,4 | 
[V:1] D4 | 
[V:2] B4 | 
[V:3] G4 | 
[V:4] G,4 | 
[V:1] F4- | 
[V:2] d4- | 
[V:3] A4- | 
[V:4] D,4- | 
[V:1] F4 | 
[V:2] d4 | 
[V:3] A4 | 
[V:4] D,4 | 
[V:1] G4 | 
[V:2] B4 | 
[V:3] G4 | 
[V:4] D4 | 
[V:1] G4 | 
[V:2] B4 | 
[V:3] G4 | 
[V:4] D4 | 
[V:1] G4- | 
[V:2] d4- | 
[V:3] G4- | 
[V:4] B,4- | 
[V:1] G4 | 
[V:2] d4 | 
[V:3] G4 | 
[V:4] B,4 | 
[V:1] z4 | 
[V:2] z4 | 
[V:3] z4 | 
[V:4] z4 | 
[V:1] A4- | 
[V:2] f4 | 
[V:3] F4 | 
[V:4] C4- | 
[V:1] A4 | 
[V:2] e2f2 | 
[V:3] A4 | 
[V:4] C4 | 
[V:1] B4 | 
[V:2] g2d2- | 
[V:3] G4 | 
[V:4] D4 | 
[V:1] A2G2- | 
[V:2] d2B3/c/ | 
[V:3] F2G2 | 
[V:4] D,2_E,2 | 
[V:1] G2^F2 | 
[V:2] d4 | 
[V:3] A4 | 
[V:4] D,4 | 
[V:1] G4 | 
[V:2] d4 | 
[V:3] G4 | 
[V:4] B,4 | 
[V:1] G4- | 
[V:2] d4- | 
[V:3] G4- | 
[V:4] B,4- | 
[V:1] G4 | 
[V:2] d4 | 
[V:3] G4 | 
[V:4] B,4 | 
[V:1] z4 | 
[V:2] z4 | 
[V:3] z4 | 
[V:4] z4 | 
[V:1] G4 | 
[V:2] d4 | 
[V:3] G4 | 
[V:4] B,4 | 
[V:1] G4 | 
[V:2] d4- | 
[V:3] G4 | 
[V:4] G,4 | 
[V:1] F4 | 
[V:2] d4 | 
[V:3] A4 | 
[V:4] D,4 | 
[V:1] G4 | 
[V:2] e4 | 
[V:3] B4 | 
[V:4] G,4 | 
[V:1] A4- | 
[V:2] f4- | 
[V:3] c4- | 
[V:4] F,4- | 
[V:1] A4 | 
[V:2] f4 | 
[V:3] c4 | 
[V:4] F,4 | 
[V:1] G4 | 
[V:2] d4 | 
[V:3] B4 | 
[V:4] G,4 | 
[V:1] F2A2 | 
[V:2] c2f2- | 
[V:3] A2F2 | 
[V:4] A,2C2 | 
[V:1] G4 | 
[V:2] f2e2 | 
[V:3] G4 | 
[V:4] B,4 | 
[V:1] A4 | 
[V:2] f4 | 
[V:3] F4 | 
[V:4] C4 | 
[V:1] z4 | 
[V:2] z4 | 
[V:3] z4 | 
[V:4] z4 | 
[V:1] B4- | 
[V:2] d4 | 
[V:3] G4- | 
[V:4] B,3A, | 
[V:1] B2A2 | 
[V:2] B2d2 | 
[V:3] G2A2 | 
[V:4] G,2F,2 | 
[V:1] G2F2 | 
[V:2] _e2c2 | 
[V:3] B2A2 | 
[V:4] _E,2F,2 | 
[V:1] E4 | 
[V:2] c4 | 
[V:3] G4 | 
[V:4] C,4 | 
[V:1] F4- | 
[V:2] A4- | 
[V:3] F4- | 
[V:4] C4- | 
[V:1] F4 | 
[V:2] A4 | 
[V:3] F4 | 
[V:4] C4 | 
[V:1] z4 | 
[V:2] z4 | 
[V:3] z4 | 
[V:4] z4 | 
[V:1] A4 | 
[V:2] c4 | 
[V:3] F4 | 
[V:4] C4 | 
[V:1] B4 | 
[V:2] d4 | 
[V:3] G4 | 
[V:4] B,4 | 
[V:1] A4 | 
[V:2] f4 | 
[V:3] A4 | 
[V:4] F,4 | 
[V:1] G2A2- | 
[V:2] e2f2- | 
[V:3] B2c2- | 
[V:4] G,2F,2- | 
[V:1] AGFE | 
[V:2] fedc | 
[V:3] cBAG | 
[V:4] F,G,D,E, | 
[V:1] F4 | 
[V:2] d4 | 
[V:3] A4 | 
[V:4] D,4 | 
[V:1] G4 | 
[V:2] d4 | 
[V:3] G4 | 
[V:4] B,4 | 
[V:1] G4 | 
[V:2] d4 | 
[V:3] G4 | 
[V:4] B,4 | 
[V:1] z4 | 
[V:2] z4 | 
[V:3] z4 | 
[V:4] z4 | 
[V:1] G4 | 
[V:2] d4 | 
[V:3] B4 | 
[V:4] G,4 | 
[V:1] F4 | 
[V:2] d4- | 
[V:3] A4 | 
[V:4] D,4 | 
[V:1] G4- | 
[V:2] d4 | 
[V:3] G4- | 
[V:4] B,4- | 
[V:1] G2G2 | 
[V:2] d2d2 | 
[V:3] G2G2 | 
[V:4] B,2B,2 | 
[V:1] G4 | 
[V:2] d4 | 
[V:3] G4 | 
[V:4] B,4 | 
[V:1] G4 | 
[V:2] d4- | 
[V:3] G4 | 
[V:4] G,4 | 
[V:1] G4 | 
[V:2] d4 | 
[V:3] G4 | 
[V:4] B,4 | 
[V:1] F4 | 
[V:2] c4 | 
[V:3] A4 | 
[V:4] F,4 | 
[V:1] _E2D2- | 
[V:2] B2A2- | 
[V:3] G2F2- | 
[V:4] G,2D,2- | 
[V:1] D2C2- | 
[V:2] A2G2- | 
[V:3] F2_E2 | 
[V:4] D,2_E,2 | 
[V:1] C2=B,2 | 
[V:2] G2F2 | 
[V:3] D4 | 
[V:4] F,2D,2 | 
[V:1] C4- | 
[V:2] G4- | 
[V:3] C4- | 
[V:4] E,4 | 
[V:1] C4 | 
[V:2] G4 | 
[V:3] C4 | 
[V:4] G,4 | 
[V:1] z4 | 
[V:2] z4 | 
[V:3] z4 | 
[V:4] z4 | 
[V:1] F4- | 
[V:2] d4 | 
[V:3] D4- | 
[V:4] D4- | 
[V:1] F2G2 | 
[V:2] f2e2 | 
[V:3] D2E2 | 
[V:4] D2C2 | 
[V:1] A4 | 
[V:2] c4 | 
[V:3] F4 | 
[V:4] A,4 | 
[V:1] B4 | 
[V:2] B4 | 
[V:3] G4 | 
[V:4] G,4 | 
[V:1] A2G2- | 
[V:2] c2_e2- | 
[V:3] F2B2- | 
[V:4] F,2_E,2- | 
[V:1] G2F2 | 
[V:2] e2c2 | 
[V:3] B2A2 | 
[V:4] E,2F,2 | 
[V:1] E4 | 
[V:2] c4 | 
[V:3] G4 | 
[V:4] C,4 | 
[V:1] F4- | 
[V:2] A4- | 
[V:3] F4- | 
[V:4] C4- | 
[V:1] F4 | 
[V:2] A4 | 
[V:3] F4 | 
[V:4] C4 | 
[V:1] z4 | 
[V:2] z4 | 
[V:3] z4 | 
[V:4] z4 | 
[V:1] D4- | 
[V:2] d4- | 
[V:3] B4- | 
[V:4] G,4- | 
[V:1] D4 | 
[V:2] d4 | 
[V:3] B4 | 
[V:4] G,4 | 
[V:1] F4 | 
[V:2] d4- | 
[V:3] A4 | 
[V:4] D,4 | 
[V:1] G4 | 
[V:2] d4 | 
[V:3] G4 | 
[V:4] B,4 | 
[V:1] G2G2 | 
[V:2] d2d2 | 
[V:3] G2G2 | 
[V:4] B,2B,2 | 
[V:1] G4 | 
[V:2] d4 | 
[V:3] G4 | 
[V:4] B,4 | 
[V:1] G4- | 
[V:2] d4- | 
[V:3] G4- | 
[V:4] G,4- | 
[V:1] G4 | 
[V:2] d4 | 
[V:3] G4 | 
[V:4] G,4 | 
[V:1] z4 | 
[V:2] z4 | 
[V:3] z4 | 
[V:4] z4 | 
[V:1] G4- | 
[V:2] _e4- | 
[V:3] G4- | 
[V:4] _E,4- | 
[V:1] G2G2 | 
[V:2] e2c2 | 
[V:3] G2G2 | 
[V:4] E,2_E,2 | 
[V:1] G4 | 
[V:2] c4 | 
[V:3] G4 | 
[V:4] _E,4 | 
[V:1] F4- | 
[V:2] d4- | 
[V:3] A4- | 
[V:4] D,4- | 
[V:1] F4 | 
[V:2] d4 | 
[V:3] A4 | 
[V:4] D,4 | 
[V:1] z4 | 
[V:2] z4 | 
[V:3] z4 | 
[V:4] z4 | 
[V:1] G4 | 
[V:2] d3e | 
[V:3] B4 | 
[V:4] G,4 | 
[V:1] A4- | 
[V:2] f4- | 
[V:3] c4- | 
[V:4] F,4- | 
[V:1] A4 | 
[V:2] f4 | 
[V:3] c4 | 
[V:4] F,4 | 
[V:1] G4 | 
[V:2] d4 | 
[V:3] B4 | 
[V:4] G,4 | 
[V:1] F2G2- | 
[V:2] d2_e2- | 
[V:3] A2B2- | 
[V:4] D,2_E,2- | 
[V:1] GFED | 
[V:2] edcB | 
[V:3] BAGF | 
[V:4] E,F,C,D, | 
[V:1] E4 | 
[V:2] c4 | 
[V:3] G4 | 
[V:4] C,4 | 
[V:1] F4- | 
[V:2] A4- | 
[V:3] F4- | 
[V:4] C4- | 
[V:1] F4 | 
[V:2] A4 | 
[V:3] F4 | 
[V:4] C4 | 
[V:1] z4 | 
[V:2] z4 | 
[V:3] z4 | 
[V:4] z4 | 
[V:1] A4 | 
[V:2] c4 | 
[V:3] F4 | 
[V:4] A,4 | 
[V:1] B4 | 
[V:2] B4 | 
[V:3] G4 | 
[V:4] G,4 | 
[V:1] A4 | 
[V:2] c4 | 
[V:3] A4 | 
[V:4] F,4 | 
[V:1] G2A2- | 
[V:2] e2f2- | 
[V:3] B2c2- | 
[V:4] G,2F,2- | 
[V:1] AGG2- | 
[V:2] f2d2- | 
[V:3] c2B2 | 
[V:4] F,2G,2 | 
[V:1] G2^F2 | 
[V:2] d2d2 | 
[V:3] A4 | 
[V:4] D,4 | 
[V:1] G4 | 
[V:2] d4 | 
[V:3] G4 | 
[V:4] B,4 | 
[V:1] G4- | 
[V:2] d4- | 
[V:3] G4- | 
[V:4] G,4- | 
[V:1] G4 | 
[V:2] d4 | 
[V:3] G4 | 
[V:4] G,4 | 
[V:1] z4 | 
[V:2] z4 | 
[V:3] z4 | 
[V:4] z4 | 
[V:1] G4- | 
[V:2] d4 | 
[V:3] G4 | 
[V:4] B,4 | 
[V:1] G2F2- | 
[V:2] B2A2- | 
[V:3] B2d2- | 
[V:4] G,2D,2- | 
[V:1] F2E2 | 
[V:2] A2G2 | 
[V:3] d2c2- | 
[V:4] D,2E,2 | 
[V:1] D4 | 
[V:2] B3G | 
[V:3] c2=B2 | 
[V:4] G,4 | 
[V:1] C4 | 
[V:2] G4 | 
[V:3] c4 | 
[V:4] C,4 | 
[V:1] z4 | 
[V:2] z4 | 
[V:3] z4 | 
[V:4] z4 | 
[V:1] F4 | 
[V:2] d4- | 
[V:3] A4 | 
[V:4] D,4 | 
[V:1] G4 | 
[V:2] d4 | 
[V:3] B4 | 
[V:4] G,4 | 
[V:1] A4 | 
[V:2] f4 | 
[V:3] c4 | 
[V:4] F,4 | 
[V:1] B4- | 
[V:2] d4 | 
[V:3] B4 | 
[V:4] G,4- | 
[V:1] B2A2 | 
[V:2] B2f2 | 
[V:3] d3c | 
[V:4] G,2D,2 | 
[V:1] G4 | 
[V:2] _e4 | 
[V:3] B4 | 
[V:4] _E,4 | 
[V:1] F2E2- | 
[V:2] c2c2- | 
[V:3] A2G2- | 
[V:4] F,2C,2- | 
[V:1] E2F2 | 
[V:2] c2A2 | 
[V:3] G2F2 | 
[V:4] C,2C2 | 
[V:1] F4- | 
[V:2] A4- | 
[V:3] F4- | 
[V:4] C4- | 
[V:1] F4 | 
[V:2] A4 | 
[V:3] F4 | 
[V:4] C4 | 
[V:1] z4 | 
[V:2] z4 | 
[V:3] z4 | 
[V:4] z4 | 
[V:1] D4- | 
[V:2] d4- | 
[V:3] B4- | 
[V:4] G,4- | 
[V:1] D4 | 
[V:2] d4- | 
[V:3] B4 | 
[V:4] G,4 | 
[V:1] F4 | 
[V:2] d4 | 
[V:3] A4 | 
[V:4] D,4 | 
[V:1] G2A2- | 
[V:2] c2d2 | 
[V:3] G2F2 | 
[V:4] _E,2D,2 | 
[V:1] AGG2- | 
[V:2] B2c2 | 
[V:3] G4 | 
[V:4] _E,4 | 
[V:1] G2^F2 | 
[V:2] d4 | 
[V:3] A4 | 
[V:4] D,4 | 
[V:1] G4 | 
[V:2] B2_e2- | 
[V:3] G4 | 
[V:4] _E,4 | 
[V:1] G4 | 
[V:2] edcB | 
[V:3] G4 | 
[V:4] _E,4 | 
[V:1] G4 | 
[V:2] c4 | 
[V:3] G4 | 
[V:4] _E,4 | 
[V:1] F4- | 
[V:2] d4- | 
[V:3] A4- | 
[V:4] D,4- | 
[V:1] F4 | 
[V:2] d4 | 
[V:3] A4 | 
[V:4] D,4 | 
[V:1] G4 | 
[V:2] e4 | 
[V:3] B4 | 
[V:4] G,4 | 
[V:1] A4- | 
[V:2] f4- | 
[V:3] c4- | 
[V:4] F,4- | 
[V:1] A4 | 
[V:2] f4 | 
[V:3] c4 | 
[V:4] F,4 | 
[V:1] G4 | 
[V:2] d4 | 
[V:3] B4 | 
[V:4] G,4 | 
[V:1] F2A2 | 
[V:2] c2f2- | 
[V:3] A2F2 | 
[V:4] A,2C2- | 
[V:1] G4 | 
[V:2] f2e2 | 
[V:3] G4 | 
[V:4] C2B,2 | 
[V:1] A4 | 
[V:2] f4 | 
[V:3] F4 | 
[V:4] C4 | 
[V:1] z4 | 
[V:2] z4 | 
[V:3] z4 | 
[V:4] z4 | 
[V:1] G4 | 
[V:2] d4 | 
[V:3] G4 | 
[V:4] B,4 | 
[V:1] F4 | 
[V:2] c4 | 
[V:3] A4 | 
[V:4] A,4 | 
[V:1] G4 | 
[V:2] d2B2 | 
[V:3] B4 | 
[V:4] G,4 | 
[V:1] A4 | 
[V:2] c3d | 
[V:3] A4 | 
[V:4] F,4 | 
[V:1] G2F2- | 
[V:2] _e2c2 | 
[V:3] B2A2 | 
[V:4] _E,2F,2 | 
[V:1] F2E2 | 
[V:2] c4 | 
[V:3] G4 | 
[V:4] C,4 | 
[V:1] F4- | 
[V:2] A4- | 
[V:3] F4- | 
[V:4] C4- | 
[V:1] F4 | 
[V:2] A4 | 
[V:3] F4 | 
[V:4] C4 | 
[V:1] z4 | 
[V:2] z4 | 
[V:3] z4 | 
[V:4] z4 | 
[V:1] A4 | 
[V:2] c4 | 
[V:3] F4 | 
[V:4] C4 | 
[V:1] B4 | 
[V:2] d4 | 
[V:3] G4 | 
[V:4] B,4 | 
[V:1] A4 | 
[V:2] f4 | 
[V:3] A4 | 
[V:4] F,4 | 
[V:1] G2A2- | 
[V:2] e2f2- | 
[V:3] B2c2- | 
[V:4] G,2F,2- | 
[V:1] AGFE | 
[V:2] fedc | 
[V:3] cBAG | 
[V:4] F,G,D,E, | 
[V:1] F4 | 
[V:2] d4 | 
[V:3] A4 | 
[V:4] D,4 | 
[V:1] G4 | 
[V:2] d4 | 
[V:3] G4 | 
[V:4] B,4 | 
[V:1] G4- | 
[V:2] d4- | 
[V:3] G4- | 
[V:4] B,4- | 
[V:1] G4 | 
[V:2] d4 | 
[V:3] G4 | 
[V:4] B,4 | 
[V:1] z4 | 
[V:2] z4 | 
[V:3] z4 | 
[V:4] z4 | 
[V:1] G4 | 
[V:2] d4 | 
[V:3] G4 | 
[V:4] B,4 | 
[V:1] F4 | 
[V:2] c4 | 
[V:3] A4 | 
[V:4] F,4 | 
[V:1] _E2D2- | 
[V:2] B2A2- | 
[V:3] G2F2- | 
[V:4] G,2D,2- | 
[V:1] D2C2- | 
[V:2] A2G2- | 
[V:3] F2E2 | 
[V:4] D,2E,2 | 
[V:1] C2=B,2 | 
[V:2] G2F2 | 
[V:3] D4 | 
[V:4] F,2D,2 | 
[V:1] C4- | 
[V:2] G4- | 
[V:3] C4 | 
[V:4] E,4 | 
[V:1] C4 | 
[V:2] G4 | 
[V:3] E4 | 
[V:4] G,4 | 
[V:1] F4 | 
[V:2] z4 | 
[V:3] D4 | 
[V:4] A,4 | 
[V:1] G4- | 
[V:2] d4- | 
[V:3] G4- | 
[V:4] B,4- | 
[V:1] G4 | 
[V:2] d4 | 
[V:3] G4 | 
[V:4] B,4 | 
[V:1] A4 | 
[V:2] f4 | 
[V:3] F4 | 
[V:4] C4 | 
[V:1] B3A | 
[V:2] d4- | 
[V:3] G4 | 
[V:4] B,4 | 
[V:1] G4- | 
[V:2] d4 | 
[V:3] B4- | 
[V:4] z4 | 
[V:1] G2F2 | 
[V:2] d2c2 | 
[V:3] B2A2 | 
[V:4] G,2A,2 | 
[V:1] E4 | 
[V:2] B4 | 
[V:3] G4 | 
[V:4] B,2G,2 | 
[V:1] F4- | 
[V:2] c4- | 
[V:3] F4- | 
[V:4] A,4- | 
[V:1] F4 | 
[V:2] c4 | 
[V:3] F4 | 
[V:4] A,4 | 
[V:1] z4 | 
[V:2] z4 | 
[V:3] z4 | 
[V:4] z4 | 
[V:1] D4- | 
[V:2] d4- | 
[V:3] B4- | 
[V:4] G,4- | 
[V:1] D4 | 
[V:2] d4 | 
[V:3] B4 | 
[V:4] G,4 | 
[V:1] F4 | 
[V:2] d4 | 
[V:3] A4 | 
[V:4] D,4 | 
[V:1] G2A2- | 
[V:2] c2d2 | 
[V:3] G2F2 | 
[V:4] _E,2D,2 | 
[V:1] AGG2- | 
[V:2] B2c2 | 
[V:3] G4 | 
[V:4] _E,4 | 
[V:1] G2^F2 | 
[V:2] d4 | 
[V:3] A4 | 
[V:4] D,4 | 
[V:1] G4- | 
[V:2] B4- | 
[V:3] G4- | 
[V:4] D4- | 
[V:1] G4 | 
[V:2] B4 | 
[V:3] G4 | 
[V:4] D4 | 
[V:1] z4 | 
[V:2] z4 | 
[V:3] z4 | 
[V:4] z4 | 
[V:1] G4 | 
[V:2] d4 | 
[V:3] G4 | 
[V:4] B,4 | 
[V:1] G4 | 
[V:2] d4- | 
[V:3] G4 | 
[V:4] G,4 | 
[V:1] F4 | 
[V:2] d4 | 
[V:3] A4 | 
[V:4] D,4 | 
[V:1] G4 | 
[V:2] e4 | 
[V:3] B4 | 
[V:4] G,4 | 
[V:1] A4- | 
[V:2] f4- | 
[V:3] c4- | 
[V:4] F,4- | 
[V:1] A4 | 
[V:2] f4 | 
[V:3] c4 | 
[V:4] F,4 | 
[V:1] G4 | 
[V:2] d2B2 | 
[V:3] B4 | 
[V:4] G,4 | 
[V:1] F2G2- | 
[V:2] d2_e2- | 
[V:3] A2B2- | 
[V:4] D,2_E,2- | 
[V:1] GFED | 
[V:2] edcB | 
[V:3] BAGF | 
[V:4] E,F,C,D, | 
[V:1] E4 | 
[V:2] c4 | 
[V:3] G4 | 
[V:4] C,4 | 
[V:1] F4- | 
[V:2] A4- | 
[V:3] F4- | 
[V:4] C4- | 
[V:1] F4 | 
[V:2] A4 | 
[V:3] F4 | 
[V:4] C4 | 
[V:1] z4 | 
[V:2] z4 | 
[V:3] z4 | 
[V:4] z4 | 
[V:1] A4 | 
[V:2] f4 | 
[V:3] F4 | 
[V:4] C4 | 
[V:1] B4 | 
[V:2] d3e | 
[V:3] G4 | 
[V:4] B,4 | 
[V:1] A2G2- | 
[V:2] f2d2- | 
[V:3] F2G2 | 
[V:4] C2B,2 | 
[V:1] G2^F2 | 
[V:2] d2c2 | 
[V:3] A4 | 
[V:4] A,2C2 | 
[V:1] G4- | 
[V:2] d4- | 
[V:3] G4- | 
[V:4] B,4- | 
[V:1] G2G2 | 
[V:2] d2d2 | 
[V:3] G2G2 | 
[V:4] B,2B,2 | 
[V:1] G4- | 
[V:2] d4- | 
[V:3] G4- | 
[V:4] G,4- | 
[V:1] G4 | 
[V:2] d4 | 
[V:3] G4 | 
[V:4] G,4 | 
[V:1] z4 | 
[V:2] z4 | 
[V:3] z4 | 
[V:4] z4 | 
[V:1] G4 | 
[V:2] d4 | 
[V:3] G4 | 
[V:4] B,4 | 
[V:1] G4- | 
[V:2] d4- | 
[V:3] G4- | 
[V:4] B,4- | 
[V:1] G2G2 | 
[V:2] d2d2 | 
[V:3] G2G2 | 
[V:4] B,2B,2 | 
[V:1] G4 | 
[V:2] d4 | 
[V:3] G4 | 
[V:4] B,4 | 
[V:1] z4 | 
[V:2] z4 | 
[V:3] z4 | 
[V:4] z4 | 
[V:1] G4- | 
[V:2] d4 | 
[V:3] G4 | 
[V:4] B,4 | 
[V:1] G2F2- | 
[V:2] B2A2- | 
[V:3] B2d2- | 
[V:4] G,2D,2- | 
[V:1] F2E2 | 
[V:2] A2G2 | 
[V:3] d2c2- | 
[V:4] D,2E,2 | 
[V:1] D4 | 
[V:2] B3G | 
[V:3] c2=B2 | 
[V:4] G,4 | 
[V:1] C4 | 
[V:2] G4 | 
[V:3] c4 | 
[V:4] C,4 | 
[V:1] z4 | 
[V:2] z4 | 
[V:3] z4 | 
[V:4] z4 | 
[V:1] F4- | 
[V:2] d4- | 
[V:3] A4- | 
[V:4] D,4- | 
[V:1] F2G2 | 
[V:2] d2B2 | 
[V:3] A2B2 | 
[V:4] D,2G,2- | 
[V:1] A4 | 
[V:2] A4 | 
[V:3] c4 | 
[V:4] G,2^F,2 | 
[V:1] B4 | 
[V:2] G4 | 
[V:3] B4 | 
[V:4] G,4 | 
[V:1] A2c2- | 
[V:2] z2g2- | 
[V:3] c4 | 
[V:4] F,2C,2 | 
[V:1] c2B2 | 
[V:2] g4 | 
[V:3] d4 | 
[V:4] G,4 | 
[V:1] A2G2- | 
[V:2] _e4 | 
[V:3] c2B2- | 
[V:4] C,2_E,2- | 
[V:1] G2F2 | 
[V:2] _e2d2 | 
[V:3] B2A2 | 
[V:4] E,2F,2 | 
[V:1] E4 | 
[V:2] c4 | 
[V:3] G4 | 
[V:4] C,4 | 
[V:1] F2G2- | 
[V:2] c2_e2- | 
[V:3] A2B2- | 
[V:4] F,2_E,2- | 
[V:1] GFED | 
[V:2] edcB | 
[V:3] BAGF | 
[V:4] E,F,C,D, | 
[V:1] E4 | 
[V:2] c4 | 
[V:3] G4 | 
[V:4] C,4 | 
[V:1] F4 |]  
[V:2] c4 |]  
[V:3] F4 |]  
[V:4] C4 |]  


